Numix-Light/22/status/sflphone-offline.svg

<?xml version="1.0" encoding="UTF-8" standalone="no"?>
<svg
   xmlns:dc="http://purl.org/dc/elements/1.1/"
   xmlns:cc="http://creativecommons.org/ns#"
   xmlns:rdf="http://www.w3.org/1999/02/22-rdf-syntax-ns#"
   xmlns:svg="http://www.w3.org/2000/svg"
   xmlns="http://www.w3.org/2000/svg"
   xmlns:sodipodi="http://sodipodi.sourceforge.net/DTD/sodipodi-0.dtd"
   xmlns:inkscape="http://www.inkscape.org/namespaces/inkscape"
   id="svg4927"
   preserveAspectRatio="xMidYMid meet"
   viewBox="0 0 32.65625 32.65625"
   height="22"
   width="22"
   version="1.0"
   inkscape:version="0.91 r"
   sodipodi:docname="sflphone-offline.svg">
  <sodipodi:namedview
     pagecolor="#ffffff"
     bordercolor="#666666"
     borderopacity="1"
     objecttolerance="10"
     gridtolerance="10"
     guidetolerance="10"
     inkscape:pageopacity="0"
     inkscape:pageshadow="2"
     inkscape:window-width="1920"
     inkscape:window-height="1056"
     id="namedview16"
     showgrid="true"
     inkscape:zoom="19.666667"
     inkscape:cx="-0.42987343"
     inkscape:cy="11.175405"
     inkscape:window-x="0"
     inkscape:window-y="24"
     inkscape:window-maximized="1"
     inkscape:current-layer="svg4927">
    <inkscape:grid
       type="xygrid"
       id="grid4144" />
  </sodipodi:namedview>
  <metadata
     id="metadata4937">
    <rdf:RDF>
      <cc:Work
         rdf:about="">
        <dc:format>image/svg+xml</dc:format>
        <dc:type
           rdf:resource="http://purl.org/dc/dcmitype/StillImage" />
        <dc:title />
      </cc:Work>
    </rdf:RDF>
  </metadata>
  <defs
     id="defs4935" />
  <path
     id="path5466"
     d="m 17.124869,4.458802 c -0.639684,-0.019165 -0.76919,0.00383 -0.953639,0.1686515 -0.302182,0.2644763 -0.286484,0.8317588 0.02747,1.0732372 0.168751,0.1264887 0.298257,0.1533196 1.043901,0.1954825 2.205535,0.1264887 3.88912,0.7091032 5.517763,1.904996 1.954371,1.4297053 3.178796,3.4228598 3.64188,5.9181368 0.117733,0.636276 0.1766,1.169062 0.215844,1.993155 0.02355,0.536618 0.04317,0.655441 0.113809,0.793429 0.223693,0.417795 0.879074,0.479123 1.177332,0.107323 0.156978,-0.191649 0.1766,-0.341136 0.149129,-1.011909 C 27.983794,13.63498 27.548181,11.848807 26.782916,10.346275 26.233494,9.2692044 25.715468,8.5754332 24.781451,7.6593486 23.784643,6.6896021 23.031151,6.1568165 21.853819,5.593367 20.656865,5.0222515 19.56587,4.7041133 18.215863,4.5392947 17.949001,4.5086308 17.458446,4.4703009 17.124869,4.458802 Z"
     style="fill:#353535;fill-opacity:1;stroke:none;opacity:0.4"
     inkscape:connector-curvature="0" />
  <path
     id="path5464"
     d="M 8.2634833,4.8650989 C 7.8906615,4.9417587 7.4236531,5.213901 6.4111476,5.9498351 5.8028594,6.3944619 4.9669537,7.1917238 4.7707317,7.513695 4.3154966,8.27646 4.3429677,8.9242353 4.8963138,10.415268 c 0.9497144,2.556605 2.3389662,5.021217 4.1638308,7.397671 3.4927514,4.549759 7.8920484,7.861463 13.4019624,10.080764 0.702475,0.283641 0.930092,0.329637 1.479514,0.302806 0.667155,-0.03066 1.173408,-0.233812 1.887656,-0.762765 0.788812,-0.586447 1.919051,-1.958658 2.209459,-2.690759 0.274711,-0.693771 0.204071,-1.322382 -0.20407,-1.813004 -0.231542,-0.272143 -1.942598,-1.636687 -2.743184,-2.184805 -0.608288,-0.413962 -1.550154,-0.985078 -1.981842,-1.203558 -0.569044,-0.283642 -1.134163,-0.333471 -1.687509,-0.149487 -0.435613,0.145654 -0.580818,0.272142 -1.216577,1.054072 -0.329653,0.398631 -0.631835,0.758932 -0.671079,0.793429 -0.04317,0.0345 -0.180524,0.111157 -0.310031,0.168652 -0.514101,0.233812 -1.216576,0.09199 -2.366437,-0.467625 -0.894772,-0.433128 -1.687509,-0.981245 -2.586206,-1.786173 -0.765266,-0.682273 -1.538381,-1.571526 -1.970069,-2.265297 -0.55727,-0.893087 -0.98111,-2.054483 -0.985034,-2.694592 0,-0.275976 0.113808,-0.666941 0.255088,-0.866256 0.05494,-0.08049 0.404218,-0.383299 0.777039,-0.678439 0.930093,-0.732102 1.138088,-0.962081 1.26367,-1.399042 0.121658,-0.406297 -0.0078,-0.954414 -0.396368,-1.6941813 C 12.537198,8.261128 10.46117,5.6661938 9.7155261,5.1832371 9.5938684,5.1065773 9.3819487,4.9992535 9.2445933,4.9532577 8.9620336,4.8535999 8.5185719,4.811437 8.2634833,4.8650989 Z"
     style="fill:#353535;fill-opacity:1;stroke:none;opacity:0.4"
     inkscape:connector-curvature="0" />
  <path
     id="path5462"
     d="m 17.030682,7.5405259 c -0.188373,0.2798083 -0.164826,0.6171114 0.05887,0.8662558 0.145204,0.1648185 0.357124,0.2414783 0.741719,0.2721423 1.063523,0.084326 2.229082,0.4254618 3.017894,0.8854206 0.918319,0.5327854 1.671812,1.2993834 2.189838,2.2269674 0.455235,0.812594 0.718172,1.859 0.718172,2.851744 0,0.643943 0.09026,0.881588 0.392444,1.031075 0.180525,0.09199 0.506253,0.09966 0.659306,0.023 0.14128,-0.07283 0.306107,-0.249145 0.357124,-0.379466 0.05494,-0.137988 0.05494,-0.969747 0.0039,-1.425873 C 25.024767,12.646069 24.600927,11.484673 23.921999,10.495761 22.713271,8.7402518 20.868785,7.6593486 18.486649,7.3182125 17.548708,7.1802249 17.234753,7.2300537 17.030682,7.5405259 Z"
     style="fill:#353535;fill-opacity:1;stroke:none;opacity:0.4"
     inkscape:connector-curvature="0" />
  <path
     id="path4931"
     d="m 18.6554,10.131627 c -0.329653,-0.01916 -0.392444,-0.0115 -0.541572,0.06133 -0.396369,0.199315 -0.506253,0.739767 -0.219769,1.073237 0.156978,0.180151 0.302182,0.233813 0.784888,0.291307 1.028203,0.122656 1.636492,0.498289 1.981842,1.222724 0.160902,0.341136 0.255089,0.709103 0.306107,1.234223 0.04317,0.394798 0.102035,0.540452 0.290408,0.678439 0.259013,0.195483 0.686777,0.187817 0.918319,-0.01917 0.24724,-0.222313 0.290409,-0.490622 0.184449,-1.172895 C 22.203094,12.454419 21.84597,11.726151 21.194513,11.124372 20.68826,10.66058 20.09567,10.373106 19.322555,10.21212 c -0.160902,-0.0345 -0.463084,-0.06899 -0.667155,-0.08049 z"
     style="fill:#353535;fill-opacity:1;stroke:none;opacity:0.4"
     inkscape:connector-curvature="0" />
</svg>

<svg xmlns="http://www.w3.org/2000/svg" viewBox="0 0 32.65625 32.65625" height="22" width="22">
 <path d="m 17.12 4.459 c -0.64 -0.019 -0.769 0.004 -0.954 0.169 -0.302 0.264 -0.286 0.832 0.027 1.073 0.169 0.126 0.298 0.153 1.044 0.195 2.206 0.126 3.889 0.709 5.518 1.905 1.954 1.43 3.179 3.423 3.642 5.918 0.118 0.636 0.177 1.169 0.216 1.993 0.024 0.537 0.043 0.655 0.114 0.793 0.224 0.418 0.879 0.479 1.177 0.107 0.157 -0.192 0.177 -0.341 0.149 -1.012 c -0.075 -1.966 -0.51 -3.752 -1.275 -5.255 -0.549 -1.077 -1.067 -1.771 -2 -2.687 -0.997 -0.97 -1.75 -1.503 -2.928 -2.066 -1.197 -0.571 -2.288 -0.889 -3.638 -1.054 -0.267 -0.031 -0.757 -0.069 -1.091 -0.08" style="fill:#353535;opacity:0.4;fill-opacity:1;stroke:none"/>
 <path d="m 8.263 4.865 c -0.373 0.077 -0.84 0.349 -1.852 1.085 -0.608 0.445 -1.444 1.242 -1.64 1.564 -0.455 0.763 -0.428 1.411 0.126 2.902 c 0.95 2.557 2.339 5.02 4.164 7.398 3.493 4.55 7.892 7.861 13.402 10.08 0.702 0.284 0.93 0.33 1.48 0.303 0.667 -0.031 1.173 -0.234 1.888 -0.763 0.789 -0.586 1.919 -1.959 2.209 -2.691 0.275 -0.694 0.204 -1.322 -0.204 -1.813 -0.232 -0.272 -1.943 -1.637 -2.743 -2.185 -0.608 -0.414 -1.55 -0.985 -1.982 -1.204 -0.569 -0.284 -1.134 -0.333 -1.688 -0.149 -0.436 0.146 -0.581 0.272 -1.217 1.054 -0.33 0.399 -0.632 0.759 -0.671 0.793 -0.043 0.035 -0.181 0.111 -0.31 0.169 -0.514 0.234 -1.217 0.092 -2.366 -0.468 -0.895 -0.433 -1.688 -0.981 -2.586 -1.786 -0.765 -0.682 -1.538 -1.572 -1.97 -2.265 -0.557 -0.893 -0.981 -2.054 -0.985 -2.695 0 -0.276 0.114 -0.667 0.255 -0.866 0.055 -0.08 0.404 -0.383 0.777 -0.678 0.93 -0.732 1.138 -0.962 1.264 -1.399 0.122 -0.406 -0.008 -0.954 -0.396 -1.694 c -0.679 -1.296 -2.755 -3.89 -3.501 -4.373 -0.122 -0.077 -0.334 -0.184 -0.471 -0.23 -0.283 -0.1 -0.726 -0.142 -0.981 -0.088" style="fill:#353535;opacity:0.4;fill-opacity:1;stroke:none"/>
 <path d="m 17.03 7.541 c -0.188 0.28 -0.165 0.617 0.059 0.866 0.145 0.165 0.357 0.241 0.742 0.272 1.064 0.084 2.229 0.425 3.02 0.885 0.918 0.533 1.672 1.299 2.19 2.227 0.455 0.813 0.718 1.859 0.718 2.852 0 0.644 0.09 0.882 0.392 1.031 0.181 0.092 0.506 0.1 0.659 0.023 0.141 -0.073 0.306 -0.249 0.357 -0.379 0.055 -0.138 0.055 -0.97 0.004 -1.426 c -0.145 -1.246 -0.569 -2.407 -1.248 -3.396 -1.209 -1.756 -3.053 -2.836 -5.435 -3.178 -0.938 -0.138 -1.252 -0.088 -1.456 0.222" style="fill:#353535;opacity:0.4;fill-opacity:1;stroke:none"/>
 <path d="m 18.655 10.132 c -0.33 -0.019 -0.392 -0.011 -0.542 0.061 -0.396 0.199 -0.506 0.74 -0.22 1.073 0.157 0.18 0.302 0.234 0.785 0.291 1.028 0.123 1.636 0.498 1.982 1.223 0.161 0.341 0.255 0.709 0.306 1.234 0.043 0.395 0.102 0.54 0.29 0.678 0.259 0.195 0.687 0.188 0.918 -0.019 0.247 -0.222 0.29 -0.491 0.184 -1.173 c -0.157 -1.046 -0.514 -1.775 -1.166 -2.376 -0.506 -0.464 -1.099 -0.751 -1.872 -0.912 c -0.161 -0.034 -0.463 -0.069 -0.667 -0.08 z" style="fill:#353535;opacity:0.4;fill-opacity:1;stroke:none"/>
</svg>
